spyder/images/dark/reset_factory_defaults.svg

<svg width="24" height="24" viewBox="0 0 24 24" fill="none" xmlns="http://www.w3.org/2000/svg">
<path fill-rule="evenodd" clip-rule="evenodd" d="M2.23573 16.7124L9.67006 9.23295C8.9348 7.34256 9.34328 5.1234 10.8955 3.56176C12.5294 1.91794 14.9803 1.58917 16.941 2.49328L13.4281 6.0275L15.879 8.49323L19.4736 4.95901C20.2548 6.531 20.1541 8.41617 19.254 9.94897C18.9995 8.83402 17.5887 8.37998 16.7324 9.21719L13.4004 12.4752C13.1887 12.4218 12.9797 12.3548 12.7745 12.274L5.34018 19.7534C5.01339 20.0822 4.52322 20.0822 4.19643 19.7534L2.31742 17.863C1.90894 17.5343 1.90894 16.9589 2.23573 16.7124ZM14.562 13.8721L17.6612 11.0092V13.0501C20.0757 13.1581 22 15.1498 22 17.5909C22 20.1013 19.9649 22.1364 17.4546 22.1364C15.082 22.1364 13.134 20.3186 12.9272 17.9998H14.5907C14.7893 19.4037 15.9958 20.4835 17.4546 20.4835C19.0521 20.4835 20.3471 19.1885 20.3471 17.5909C20.3471 16.0629 19.1623 14.8116 17.6612 14.7056V16.735L14.562 13.8721Z" fill="#FAFAFA"/>
</svg>

<svg xmlns="http://www.w3.org/2000/svg" width="24" height="24" fill="none"><path fill="#FAFAFA" fill-rule="evenodd" d="M2.236 16.712 9.67 9.233c-.735-1.89-.327-4.11 1.226-5.671 1.633-1.644 4.084-1.973 6.045-1.069l-3.513 3.534 2.451 2.466 3.595-3.534c.78 1.572.68 3.457-.22 4.99-.255-1.115-1.665-1.569-2.522-.732L13.4 12.475a5.137 5.137 0 0 1-.626-.201l-7.434 7.48a.786.786 0 0 1-1.144 0l-1.879-1.891c-.408-.329-.408-.904-.081-1.15Zm12.326-2.84 3.1-2.863v2.041A4.546 4.546 0 1 1 12.926 18h1.664a2.893 2.893 0 1 0 3.07-3.294v2.029l-3.099-2.863Z" clip-rule="evenodd"/></svg>
